packages/kaspersky-hexa-ui-icons/src/iconsSVGs/24/Einit1.svg

<svg width="16" height="16" viewBox="0 0 16 16" fill="none" xmlns="http://www.w3.org/2000/svg">
<path d="M8.64994 2.8502C8.64994 2.49121 8.35893 2.2002 7.99994 2.2002C7.64096 2.2002 7.34994 2.49121 7.34994 2.8502V8.8502C7.34994 9.20918 7.64096 9.5002 7.99994 9.5002C8.35893 9.5002 8.64994 9.20918 8.64994 8.8502V2.8502Z" fill="black"/>
<path d="M7.04536 13.643L3.20712 9.80479C2.67992 9.27758 2.67992 8.42281 3.20712 7.8956L5.12624 5.97649C5.38008 5.72264 5.38008 5.31109 5.12624 5.05725C4.8724 4.80341 4.46084 4.80341 4.207 5.05725L2.28789 6.97636C1.253 8.01125 1.253 9.68914 2.28789 10.724L6.12612 14.5623C7.16101 15.5972 8.8389 15.5971 9.87378 14.5623L13.712 10.724C14.7469 9.68914 14.7469 8.01125 13.712 6.97636L11.7929 5.05725C11.5391 4.80341 11.1275 4.80341 10.8737 5.05725C10.6198 5.31109 10.6198 5.72264 10.8737 5.97649L12.7928 7.8956C13.32 8.42281 13.32 9.27758 12.7928 9.80479L8.95455 13.643C8.42734 14.1702 7.57256 14.1702 7.04536 13.643Z" fill="black"/>
</svg>

<svg xmlns="http://www.w3.org/2000/svg" width="16" height="16" fill="none" viewBox="0 0 16 16"><path fill="#000" d="M8.65 2.8502a.65.65 0 1 0-1.3 0v6a.65.65 0 0 0 1.3 0z"/><path fill="#000" d="M7.0454 13.643 3.207 9.8048c-.5272-.5272-.5272-1.382 0-1.9092l1.9191-1.9191a.65.65 0 0 0-.9192-.9192l-1.9191 1.919c-1.0349 1.035-1.0349 2.7128 0 3.7477l3.8382 3.8383c1.035 1.0349 2.7128 1.0348 3.7477 0l3.8382-3.8383c1.0349-1.0349 1.0349-2.7127 0-3.7476l-1.9191-1.9191a.65.65 0 1 0-.9192.9192l1.9191 1.9191c.5272.5272.5272 1.382 0 1.9092L8.9545 13.643c-.5272.5272-1.382.5272-1.9091 0"/></svg>
